images/3234631.svg

<?xml version="1.0" encoding="UTF-8"?>
<svg xmlns="http://www.w3.org/2000/svg" xmlns:xlink="http://www.w3.org/1999/xlink" width="300pt" height="300pt" viewBox="0 0 300 300" version="1.1">
<defs>
<g>
<symbol overflow="visible" id="glyph0-0">
<path style="stroke:none;" d="M 0.75 2.65625 L 0.75 -10.578125 L 8.25 -10.578125 L 8.25 2.65625 Z M 1.59375 1.8125 L 7.40625 1.8125 L 7.40625 -9.734375 L 1.59375 -9.734375 Z M 1.59375 1.8125 "/>
</symbol>
<symbol overflow="visible" id="glyph0-1">
<path style="stroke:none;" d="M 1.46875 -10.9375 L 3.46875 -10.9375 L 8.3125 -1.78125 L 8.3125 -10.9375 L 9.75 -10.9375 L 9.75 0 L 7.75 0 L 2.90625 -9.140625 L 2.90625 0 L 1.46875 0 Z M 1.46875 -10.9375 "/>
</symbol>
<symbol overflow="visible" id="glyph0-2">
<path style="stroke:none;" d="M 5.90625 -9.9375 C 4.832031 -9.9375 3.976562 -9.535156 3.34375 -8.734375 C 2.71875 -7.929688 2.40625 -6.835938 2.40625 -5.453125 C 2.40625 -4.078125 2.71875 -2.988281 3.34375 -2.1875 C 3.976562 -1.382812 4.832031 -0.984375 5.90625 -0.984375 C 6.976562 -0.984375 7.828125 -1.382812 8.453125 -2.1875 C 9.085938 -2.988281 9.40625 -4.078125 9.40625 -5.453125 C 9.40625 -6.835938 9.085938 -7.929688 8.453125 -8.734375 C 7.828125 -9.535156 6.976562 -9.9375 5.90625 -9.9375 Z M 5.90625 -11.140625 C 7.4375 -11.140625 8.660156 -10.625 9.578125 -9.59375 C 10.503906 -8.5625 10.96875 -7.179688 10.96875 -5.453125 C 10.96875 -3.734375 10.503906 -2.359375 9.578125 -1.328125 C 8.660156 -0.296875 7.4375 0.21875 5.90625 0.21875 C 4.375 0.21875 3.144531 -0.289062 2.21875 -1.3125 C 1.300781 -2.34375 0.84375 -3.722656 0.84375 -5.453125 C 0.84375 -7.179688 1.300781 -8.5625 2.21875 -9.59375 C 3.144531 -10.625 4.375 -11.140625 5.90625 -11.140625 Z M 5.90625 -11.140625 "/>
</symbol>
</g>
</defs>
<g id="surface46545">
<rect x="0" y="0" width="300" height="300" style="fill:rgb(100%,100%,100%);fill-opacity:1;stroke:none;"/>
<path style="fill:none;stroke-width:1.2;stroke-linecap:butt;stroke-linejoin:miter;stroke:rgb(0%,0%,0%);stroke-opacity:1;stroke-miterlimit:10;" d="M 245.984375 254.234375 L 242.210938 236.859375 "/>
<path style="fill:none;stroke-width:1.2;stroke-linecap:butt;stroke-linejoin:miter;stroke:rgb(0%,0%,100%);stroke-opacity:1;stroke-miterlimit:10;" d="M 242.210938 236.859375 L 238.433594 219.488281 "/>
<path style="fill:none;stroke-width:1.2;stroke-linecap:butt;stroke-linejoin:miter;stroke:rgb(0%,0%,100%);stroke-opacity:1;stroke-miterlimit:10;" d="M 238.433594 219.488281 L 221.503906 214.070312 "/>
<path style="fill:none;stroke-width:1.2;stroke-linecap:butt;stroke-linejoin:miter;stroke:rgb(0%,0%,0%);stroke-opacity:1;stroke-miterlimit:10;" d="M 221.503906 214.070312 L 204.570312 208.65625 "/>
<path style="fill:none;stroke-width:1.2;stroke-linecap:butt;stroke-linejoin:miter;stroke:rgb(0%,0%,0%);stroke-opacity:1;stroke-miterlimit:10;" d="M 264.75 195.578125 L 251.59375 207.535156 "/>
<path style="fill:none;stroke-width:1.2;stroke-linecap:butt;stroke-linejoin:miter;stroke:rgb(0%,0%,100%);stroke-opacity:1;stroke-miterlimit:10;" d="M 251.59375 207.535156 L 238.433594 219.488281 "/>
<path style=" stroke:none;fill-rule:nonzero;fill:rgb(100%,100%,100%);fill-opacity:1;" d="M 233.433594 210.488281 L 244.433594 210.488281 L 244.433594 228.488281 L 233.433594 228.488281 Z M 233.433594 210.488281 "/>
<g style="fill:rgb(0%,0%,100%);fill-opacity:1;">
  <use xlink:href="#glyph0-1" x="233.433594" y="224.102539"/>
</g>
<path style="fill:none;stroke-width:1.2;stroke-linecap:butt;stroke-linejoin:miter;stroke:rgb(0%,0%,0%);stroke-opacity:1;stroke-miterlimit:10;" d="M 204.570312 208.65625 L 197.023438 173.910156 "/>
<path style="fill:none;stroke-width:1.2;stroke-linecap:butt;stroke-linejoin:miter;stroke:rgb(0%,0%,0%);stroke-opacity:1;stroke-miterlimit:10;" d="M 197.023438 173.910156 L 210.179688 161.953125 "/>
<path style="fill:none;stroke-width:1.2;stroke-linecap:butt;stroke-linejoin:miter;stroke:rgb(0%,0%,100%);stroke-opacity:1;stroke-miterlimit:10;" d="M 210.179688 161.953125 L 223.335938 150 "/>
<path style="fill:none;stroke-width:1.2;stroke-linecap:butt;stroke-linejoin:miter;stroke:rgb(0%,0%,100%);stroke-opacity:1;stroke-miterlimit:10;" d="M 223.335938 150 L 240.269531 155.417969 "/>
<path style="fill:none;stroke-width:1.2;stroke-linecap:butt;stroke-linejoin:miter;stroke:rgb(0%,0%,0%);stroke-opacity:1;stroke-miterlimit:10;" d="M 240.269531 155.417969 L 257.199219 160.835938 "/>
<path style="fill:none;stroke-width:1.2;stroke-linecap:butt;stroke-linejoin:miter;stroke:rgb(0%,0%,100%);stroke-opacity:1;stroke-miterlimit:10;" d="M 223.335938 150 L 219.5625 132.628906 "/>
<path style="fill:none;stroke-width:1.2;stroke-linecap:butt;stroke-linejoin:miter;stroke:rgb(0%,0%,0%);stroke-opacity:1;stroke-miterlimit:10;" d="M 219.5625 132.628906 L 215.789062 115.253906 "/>
<path style=" stroke:none;fill-rule:nonzero;fill:rgb(100%,100%,100%);fill-opacity:1;" d="M 218.335938 141 L 229.335938 141 L 229.335938 159 L 218.335938 159 Z M 218.335938 141 "/>
<g style="fill:rgb(0%,0%,100%);fill-opacity:1;">
  <use xlink:href="#glyph0-1" x="218.335938" y="154.614258"/>
</g>
<path style="fill:none;stroke-width:1.2;stroke-linecap:butt;stroke-linejoin:miter;stroke:rgb(0%,0%,0%);stroke-opacity:1;stroke-miterlimit:10;" d="M 257.199219 160.835938 L 264.75 195.578125 "/>
<path style="fill:none;stroke-width:1.2;stroke-linecap:butt;stroke-linejoin:miter;stroke:rgb(0%,0%,0%);stroke-opacity:1;stroke-miterlimit:10;" d="M 215.789062 115.253906 L 228.945312 103.300781 "/>
<path style="fill:none;stroke-width:1.2;stroke-linecap:butt;stroke-linejoin:miter;stroke:rgb(0%,0%,100%);stroke-opacity:1;stroke-miterlimit:10;" d="M 228.945312 103.300781 L 242.101562 91.34375 "/>
<path style="fill:none;stroke-width:1.2;stroke-linecap:butt;stroke-linejoin:miter;stroke:rgb(0%,0%,0%);stroke-opacity:1;stroke-miterlimit:10;" d="M 212.792969 106.671875 L 223.320312 97.109375 "/>
<path style="fill:none;stroke-width:1.2;stroke-linecap:butt;stroke-linejoin:miter;stroke:rgb(0%,0%,100%);stroke-opacity:1;stroke-miterlimit:10;" d="M 223.320312 97.109375 L 233.84375 87.542969 "/>
<path style="fill:none;stroke-width:1.2;stroke-linecap:butt;stroke-linejoin:miter;stroke:rgb(0%,0%,0%);stroke-opacity:1;stroke-miterlimit:10;" d="M 181.921875 104.421875 L 215.789062 115.253906 "/>
<path style="fill:none;stroke-width:1.2;stroke-linecap:butt;stroke-linejoin:miter;stroke:rgb(0%,0%,100%);stroke-opacity:1;stroke-miterlimit:10;" d="M 242.101562 91.34375 L 238.328125 73.972656 "/>
<path style="fill:none;stroke-width:1.2;stroke-linecap:butt;stroke-linejoin:miter;stroke:rgb(0%,0%,0%);stroke-opacity:1;stroke-miterlimit:10;" d="M 238.328125 73.972656 L 234.554688 56.601562 "/>
<path style=" stroke:none;fill-rule:nonzero;fill:rgb(100%,100%,100%);fill-opacity:1;" d="M 237.101562 82.34375 L 248.101562 82.34375 L 248.101562 100.34375 L 237.101562 100.34375 Z M 237.101562 82.34375 "/>
<g style="fill:rgb(0%,0%,100%);fill-opacity:1;">
  <use xlink:href="#glyph0-1" x="237.101562" y="95.958008"/>
</g>
<path style="fill:none;stroke-width:1.2;stroke-linecap:butt;stroke-linejoin:miter;stroke:rgb(0%,0%,0%);stroke-opacity:1;stroke-miterlimit:10;" d="M 234.554688 56.601562 L 217.621094 51.183594 "/>
<path style="fill:none;stroke-width:1.2;stroke-linecap:butt;stroke-linejoin:miter;stroke:rgb(0%,0%,100%);stroke-opacity:1;stroke-miterlimit:10;" d="M 217.621094 51.183594 L 200.6875 45.765625 "/>
<path style="fill:none;stroke-width:1.2;stroke-linecap:butt;stroke-linejoin:miter;stroke:rgb(0%,0%,0%);stroke-opacity:1;stroke-miterlimit:10;" d="M 228.617188 63.484375 L 215.070312 59.152344 "/>
<path style="fill:none;stroke-width:1.2;stroke-linecap:butt;stroke-linejoin:miter;stroke:rgb(0%,0%,100%);stroke-opacity:1;stroke-miterlimit:10;" d="M 215.070312 59.152344 L 201.527344 54.816406 "/>
<path style="fill:none;stroke-width:1.2;stroke-linecap:butt;stroke-linejoin:miter;stroke:rgb(0%,0%,100%);stroke-opacity:1;stroke-miterlimit:10;" d="M 200.6875 45.765625 L 187.53125 57.722656 "/>
<path style="fill:none;stroke-width:1.2;stroke-linecap:butt;stroke-linejoin:miter;stroke:rgb(0%,0%,0%);stroke-opacity:1;stroke-miterlimit:10;" d="M 187.53125 57.722656 L 174.375 69.675781 "/>
<path style=" stroke:none;fill-rule:nonzero;fill:rgb(100%,100%,100%);fill-opacity:1;" d="M 195.6875 36.765625 L 206.6875 36.765625 L 206.6875 54.765625 L 195.6875 54.765625 Z M 195.6875 36.765625 "/>
<g style="fill:rgb(0%,0%,100%);fill-opacity:1;">
  <use xlink:href="#glyph0-1" x="195.6875" y="50.379883"/>
</g>
<path style="fill:none;stroke-width:1.2;stroke-linecap:butt;stroke-linejoin:miter;stroke:rgb(0%,0%,0%);stroke-opacity:1;stroke-miterlimit:10;" d="M 174.375 69.675781 L 181.921875 104.421875 "/>
<path style="fill:none;stroke-width:1.2;stroke-linecap:butt;stroke-linejoin:miter;stroke:rgb(0%,0%,0%);stroke-opacity:1;stroke-miterlimit:10;" d="M 166.953125 74.925781 L 172.992188 102.722656 "/>
<path style="fill:none;stroke-width:1.2;stroke-linecap:butt;stroke-linejoin:miter;stroke:rgb(0%,0%,0%);stroke-opacity:1;stroke-miterlimit:10;" d="M 140.511719 58.84375 L 174.375 69.675781 "/>
<path style="fill:none;stroke-width:1.2;stroke-linecap:butt;stroke-linejoin:miter;stroke:rgb(0%,0%,0%);stroke-opacity:1;stroke-miterlimit:10;" d="M 181.921875 104.421875 L 155.609375 128.332031 "/>
<path style="fill:none;stroke-width:1.2;stroke-linecap:butt;stroke-linejoin:miter;stroke:rgb(0%,0%,0%);stroke-opacity:1;stroke-miterlimit:10;" d="M 155.609375 128.332031 L 121.746094 117.496094 "/>
<path style="fill:none;stroke-width:1.2;stroke-linecap:butt;stroke-linejoin:miter;stroke:rgb(0%,0%,0%);stroke-opacity:1;stroke-miterlimit:10;" d="M 154.769531 119.28125 L 127.679688 110.613281 "/>
<path style="fill:none;stroke-width:1.2;stroke-linecap:butt;stroke-linejoin:miter;stroke:rgb(0%,0%,0%);stroke-opacity:1;stroke-miterlimit:10;" d="M 121.746094 117.496094 L 114.195312 82.75 "/>
<path style="fill:none;stroke-width:1.2;stroke-linecap:butt;stroke-linejoin:miter;stroke:rgb(0%,0%,0%);stroke-opacity:1;stroke-miterlimit:10;" d="M 121.746094 117.496094 L 95.429688 141.40625 "/>
<path style="fill:none;stroke-width:1.2;stroke-linecap:butt;stroke-linejoin:miter;stroke:rgb(0%,0%,0%);stroke-opacity:1;stroke-miterlimit:10;" d="M 114.195312 82.75 L 140.511719 58.84375 "/>
<path style="fill:none;stroke-width:1.2;stroke-linecap:butt;stroke-linejoin:miter;stroke:rgb(0%,0%,0%);stroke-opacity:1;stroke-miterlimit:10;" d="M 122.453125 86.550781 L 143.503906 67.425781 "/>
<path style="fill:none;stroke-width:1.2;stroke-linecap:butt;stroke-linejoin:miter;stroke:rgb(0%,0%,0%);stroke-opacity:1;stroke-miterlimit:10;" d="M 95.429688 141.40625 L 61.566406 130.570312 "/>
<path style="fill:none;stroke-width:1.2;stroke-linecap:butt;stroke-linejoin:miter;stroke:rgb(0%,0%,0%);stroke-opacity:1;stroke-miterlimit:10;" d="M 89.492188 148.289062 L 62.402344 139.625 "/>
<path style="fill:none;stroke-width:1.2;stroke-linecap:butt;stroke-linejoin:miter;stroke:rgb(0%,0%,0%);stroke-opacity:1;stroke-miterlimit:10;" d="M 102.976562 176.152344 L 95.429688 141.40625 "/>
<path style="fill:none;stroke-width:1.2;stroke-linecap:butt;stroke-linejoin:miter;stroke:rgb(0%,0%,0%);stroke-opacity:1;stroke-miterlimit:10;" d="M 61.566406 130.570312 L 35.25 154.480469 "/>
<path style="fill:none;stroke-width:1.2;stroke-linecap:butt;stroke-linejoin:miter;stroke:rgb(0%,0%,0%);stroke-opacity:1;stroke-miterlimit:10;" d="M 35.25 154.480469 L 42.800781 189.226562 "/>
<path style="fill:none;stroke-width:1.2;stroke-linecap:butt;stroke-linejoin:miter;stroke:rgb(0%,0%,0%);stroke-opacity:1;stroke-miterlimit:10;" d="M 44.179688 156.179688 L 50.21875 183.976562 "/>
<path style="fill:none;stroke-width:1.2;stroke-linecap:butt;stroke-linejoin:miter;stroke:rgb(0%,0%,0%);stroke-opacity:1;stroke-miterlimit:10;" d="M 42.800781 189.226562 L 76.664062 200.0625 "/>
<path style="fill:none;stroke-width:1.2;stroke-linecap:butt;stroke-linejoin:miter;stroke:rgb(0%,0%,0%);stroke-opacity:1;stroke-miterlimit:10;" d="M 76.664062 200.0625 L 102.976562 176.152344 "/>
<path style="fill:none;stroke-width:1.2;stroke-linecap:butt;stroke-linejoin:miter;stroke:rgb(0%,0%,0%);stroke-opacity:1;stroke-miterlimit:10;" d="M 73.667969 191.476562 L 94.722656 172.351562 "/>
<path style="fill:none;stroke-width:1.2;stroke-linecap:butt;stroke-linejoin:miter;stroke:rgb(0%,0%,0%);stroke-opacity:1;stroke-miterlimit:10;" d="M 102.976562 176.152344 L 119.910156 181.566406 "/>
<path style="fill:none;stroke-width:1.2;stroke-linecap:butt;stroke-linejoin:miter;stroke:rgb(100%,0%,0%);stroke-opacity:1;stroke-miterlimit:10;" d="M 119.910156 181.566406 L 136.84375 186.984375 "/>
<path style="fill:none;stroke-width:1.2;stroke-linecap:butt;stroke-linejoin:miter;stroke:rgb(100%,0%,0%);stroke-opacity:1;stroke-miterlimit:10;" d="M 136.84375 186.984375 L 140.617188 204.359375 "/>
<path style="fill:none;stroke-width:1.2;stroke-linecap:butt;stroke-linejoin:miter;stroke:rgb(0%,0%,0%);stroke-opacity:1;stroke-miterlimit:10;" d="M 140.617188 204.359375 L 144.390625 221.730469 "/>
<path style=" stroke:none;fill-rule:nonzero;fill:rgb(100%,100%,100%);fill-opacity:1;" d="M 130.84375 177.984375 L 142.84375 177.984375 L 142.84375 195.984375 L 130.84375 195.984375 Z M 130.84375 177.984375 "/>
<g style="fill:rgb(100%,0%,0%);fill-opacity:1;">
  <use xlink:href="#glyph0-2" x="130.84375" y="191.598633"/>
</g>
</g>
</svg>

<svg xmlns="http://www.w3.org/2000/svg" xmlns:xlink="http://www.w3.org/1999/xlink" width="300pt" height="300pt" viewBox="0 0 300 300"><defs><symbol overflow="visible"><path d="M.75 2.656v-13.234h7.5V2.656zm.844-.844h5.812V-9.733H1.594zm0 0"/></symbol><symbol overflow="visible" id="a"><path d="M1.47-10.938h2L8.31-1.78v-9.158H9.75V0h-2L2.906-9.14V0H1.47zm0 0"/></symbol><symbol overflow="visible" id="b"><path d="M5.906-9.938c-1.074 0-1.93.403-2.562 1.204-.625.804-.938 1.898-.938 3.28 0 1.376.313 2.466.938 3.266.633.805 1.488 1.204 2.562 1.204 1.07 0 1.922-.4 2.547-1.204.633-.8.953-1.89.953-3.265 0-1.383-.32-2.477-.953-3.28-.625-.802-1.476-1.204-2.547-1.204zm0-1.203c1.532 0 2.754.515 3.672 1.546.926 1.03 1.39 2.414 1.39 4.14 0 1.72-.464 3.095-1.39 4.126C8.66-.298 7.438.22 5.906.22c-1.53 0-2.76-.51-3.687-1.532C1.3-2.345.843-3.723.843-5.452c0-1.728.457-3.11 1.375-4.142.925-1.03 2.155-1.547 3.686-1.547zm0 0"/></symbol></defs><g><path fill="#fff" d="M0 0h300v300H0z"/><path d="M245.984 254.234l-3.773-17.375" stroke-width="1.2" stroke="#000" stroke-miterlimit="10" fill="none"/><path d="M242.21 236.86l-3.776-17.372M238.434 219.488l-16.93-5.418" stroke-width="1.2" stroke="#00f" stroke-miterlimit="10" fill="none"/><path d="M221.504 214.07l-16.934-5.414M264.75 195.578l-13.156 11.957" stroke-width="1.2" stroke="#000" stroke-miterlimit="10" fill="none"/><path d="M251.594 207.535l-13.16 11.953" stroke-width="1.2" stroke="#00f" stroke-miterlimit="10" fill="none"/><path d="M233.434 210.488h11v18h-11zm0 0" fill="#fff"/><use xlink:href="#a" x="233.434" y="224.103" fill="#00f"/><path d="M204.57 208.656l-7.547-34.746M197.023 173.91l13.157-11.957" stroke-width="1.2" stroke="#000" stroke-miterlimit="10" fill="none"/><path d="M210.18 161.953L223.336 150M223.336 150l16.934 5.418" stroke-width="1.2" stroke="#00f" stroke-miterlimit="10" fill="none"/><path d="M240.27 155.418l16.93 5.418" stroke-width="1.2" stroke="#000" stroke-miterlimit="10" fill="none"/><path d="M223.336 150l-3.774-17.37" stroke-width="1.2" stroke="#00f" stroke-miterlimit="10" fill="none"/><path d="M219.563 132.63l-3.774-17.376" stroke-width="1.2" stroke="#000" stroke-miterlimit="10" fill="none"/><path d="M218.336 141h11v18h-11zm0 0" fill="#fff"/><use xlink:href="#a" x="218.336" y="154.614" fill="#00f"/><path d="M257.2 160.836l7.55 34.742M215.79 115.254l13.155-11.953" stroke-width="1.2" stroke="#000" stroke-miterlimit="10" fill="none"/><path d="M228.945 103.3l13.157-11.956" stroke-width="1.2" stroke="#00f" stroke-miterlimit="10" fill="none"/><path d="M212.793 106.672l10.527-9.563" stroke-width="1.2" stroke="#000" stroke-miterlimit="10" fill="none"/><path d="M223.32 97.11l10.524-9.567" stroke-width="1.2" stroke="#00f" stroke-miterlimit="10" fill="none"/><path d="M181.922 104.422l33.867 10.832" stroke-width="1.2" stroke="#000" stroke-miterlimit="10" fill="none"/><path d="M242.102 91.344l-3.774-17.37" stroke-width="1.2" stroke="#00f" stroke-miterlimit="10" fill="none"/><path d="M238.328 73.973l-3.773-17.37" stroke-width="1.2" stroke="#000" stroke-miterlimit="10" fill="none"/><path d="M237.102 82.344h11v18h-11zm0 0" fill="#fff"/><use xlink:href="#a" x="237.102" y="95.958" fill="#00f"/><path d="M234.555 56.602l-16.934-5.418" stroke-width="1.2" stroke="#000" stroke-miterlimit="10" fill="none"/><path d="M217.62 51.184l-16.933-5.418" stroke-width="1.2" stroke="#00f" stroke-miterlimit="10" fill="none"/><path d="M228.617 63.484l-13.547-4.332" stroke-width="1.2" stroke="#000" stroke-miterlimit="10" fill="none"/><path d="M215.07 59.152l-13.543-4.336M200.688 45.766L187.53 57.723" stroke-width="1.2" stroke="#00f" stroke-miterlimit="10" fill="none"/><path d="M187.53 57.723l-13.155 11.953" stroke-width="1.2" stroke="#000" stroke-miterlimit="10" fill="none"/><path d="M195.688 36.766h11v18h-11zm0 0" fill="#fff"/><use xlink:href="#a" x="195.688" y="50.38" fill="#00f"/><path d="M174.375 69.676l7.547 34.746M166.953 74.926l6.04 27.797M140.512 58.844l33.863 10.832M181.922 104.422l-26.313 23.91M155.61 128.332l-33.864-10.836M154.77 119.28l-27.09-8.667M121.746 117.496l-7.55-34.746M121.746 117.496l-26.316 23.91M114.195 82.75l26.317-23.906M122.453 86.55l21.05-19.124M95.43 141.406L61.566 130.57M89.492 148.29l-27.09-8.665M102.977 176.152l-7.547-34.746M61.566 130.57L35.25 154.48M35.25 154.48l7.55 34.747M44.18 156.18l6.04 27.797M42.8 189.227l33.864 10.835M76.664 200.063l26.313-23.91M73.668 191.477l21.055-19.125M102.977 176.152l16.933 5.414" stroke-width="1.2" stroke="#000" stroke-miterlimit="10" fill="none"/><path d="M119.91 181.566l16.934 5.418M136.844 186.984l3.773 17.375" stroke-width="1.2" stroke="#f00" stroke-miterlimit="10" fill="none"/><path d="M140.617 204.36l3.774 17.37" stroke-width="1.2" stroke="#000" stroke-miterlimit="10" fill="none"/><path d="M130.844 177.984h12v18h-12zm0 0" fill="#fff"/><use xlink:href="#b" x="130.844" y="191.599" fill="#f00"/></g></svg>
